svg/vscode-codicons/request-changes.svg

<svg width="16" height="16" viewBox="0 0 16 16" xmlns="http://www.w3.org/2000/svg" fill="currentColor"><path fill-rule="evenodd" clip-rule="evenodd" d="M10.7099 1.29L13.7099 4.29L13.9999 5V14L12.9999 15H3.99994L2.99994 14V2L3.99994 1H9.99994L10.7099 1.29ZM3.99994 14H12.9999V5L9.99994 2H3.99994V14ZM8 6H6V7H8V9H9V7H11V6H9V4H8V6ZM6 11H11V12H6V11Z"/></svg>

<svg xmlns="http://www.w3.org/2000/svg" width="16" height="16" viewBox="0 0 16 16"><path fill-rule="evenodd" d="m10.71 1.29 3 3L14 5v9l-1 1H4l-1-1V2l1-1h6l.71.29ZM4 14h9V5l-3-3H4v12Zm4-8H6v1h2v2h1V7h2V6H9V4H8v2Zm-2 5h5v1H6v-1Z" clip-rule="evenodd"/></svg>
